Avidclan_Website/assets/images/icons/productive-ic.svg

<?xml version="1.0" encoding="utf-8"?>
<!-- Generator: Adobe Illustrator 24.1.1, SVG Export Plug-In . SVG Version: 6.00 Build 0)  -->
<svg version="1.1" id="Layer_1" xmlns="http://www.w3.org/2000/svg" xmlns:xlink="http://www.w3.org/1999/xlink" x="0px" y="0px"
	 viewBox="0 0 386.6 452.9" style="enable-background:new 0 0 386.6 452.9;" xml:space="preserve">
<style type="text/css">
	.st0{fill:#007AFB;}
</style>
<g>
	<path class="st0" d="M196.3,154.7c4.1-3.7,9.1-6.4,14.4-7.8c0.6,0,1.1-3.3,1.1-6.9s-0.7-5.7-1.6-5.8c-8.6-1-17.2,0.8-24.6,5.3
		c-10.3,6-17.7,15.8-20.7,27.3c-1.7,6.6-2,13.4-0.9,20.1c1.3,7.1,4.2,13.9,8.4,19.8c9.1,12.5,23.7,19.9,39.1,19.9s30-7.4,39.1-19.9
		c4.4-5.8,7.5-12.5,8.9-19.7c1.2-6.7,0.9-13.6-0.8-20.2c-3-11.5-10.4-21.4-20.6-27.4c-7.4-4.4-16.1-6.3-24.6-5.4
		c-1,0-1.7,3.2-1.6,6.9c0.1,3.6,0.6,5.9,1.1,6.1c5.3,1.4,10.2,4,14.2,7.7c4.9,4.4,8,10.4,9,16.9c1,7.1-1,14.3-5.5,19.8
		c-4.6,5.7-11.6,9-18.9,9s-14.3-3.3-18.9-9c-4.5-5.5-6.6-12.7-5.5-19.8C188.3,165.1,191.4,159.1,196.3,154.7L196.3,154.7z"/>
	<path class="st0" d="M12.8,298.7c1.6,0.9,3.2,1.6,5,2.2l2.9,0.9l15.1,4.7l0.5,40v14.5l0.2,3.8v0c0.3,2.5,0.9,5,1.6,7.5
		c3,9.6,9.6,17.6,18.3,22.5c4.2,2.4,8.7,4,13.5,4.7c2.3,0.3,4.5,0.5,6.8,0.5H82l20.3-0.4l31.5-0.8c5.8,18.4,11,34.7,15.6,48.9
		c0.5,1.8,1.6,3.3,3.3,4.2c1.6,0.9,3.5,1.1,5.3,0.5c3.4-1.2,5.2-4.9,4.2-8.3c-3.9-16.1-8.6-34.7-14.2-56c-0.9-3.5-4-5.9-7.6-6H140
		l-37.6-0.9l-20.3-0.4h-5.2c-1.2,0-2.5-0.2-3.7-0.4c-3.6-0.7-6.9-2.3-9.5-4.8c-2.7-2.4-4.6-5.6-5.6-9.1c-0.3-1.2-0.5-2.4-0.7-3.6
		v-16.3l0.6-48.3v0c0-4.6-2.8-8.8-7.2-10.5h-0.2L28,279.9l-2.8-1l-0.5-0.4c-0.3-0.2-0.6-0.4-0.8-0.8c-0.4-0.6-0.5-1.4-0.3-2.1
		l19.9-43.9l5.3-11.6l2.7-6c1-2.2,1.9-4.5,2.7-6.8v0c3.5-9.5,5.3-19.6,5.3-29.7c0.3-16.3,2.9-32.5,7.8-48
		C78.1,98,98.9,70.7,126.5,52c13.7-9.4,28.9-16.4,45-20.6c4-1.2,8.1-2.2,12.3-2.7c4-0.9,8.1-1.5,12.3-1.8l12.4-0.9l12.4,0.4
		c32.5,1.9,63.6,14.2,88.5,35.1c23.6,19.9,40.8,46.4,49.4,76.1c1.9,7,3.4,14.2,4.3,21.4c1.1,7.1,1.6,14.2,1.5,21.4
		c0,13.7-1.8,27.3-5.4,40.5c-6.6,23.8-18.8,45.7-35.4,64l-0.3,0.3c-2.1,2.2-3,5.3-2.2,8.3c14.2,46.7,22.8,74.3,30.3,96.9
		c0.5,1.7,1.6,3.2,3.2,4c1.6,0.8,3.4,1,5.2,0.5c3.2-1.3,4.9-4.7,3.9-8c-5.4-22.4-12.3-49.3-24.1-93.4
		c28.9-30.6,45.6-70.7,46.8-112.8c0.3-8.2,0-16.3-1-24.4c-0.9-8.4-2.4-16.7-4.4-24.8c-9.2-34.6-28.6-65.5-55.6-88.9
		C296.5,17.6,260.2,2.9,222.2,0.5L208,0l-14.7,1c-4.8,0.4-9.5,1.1-14.2,2.1c-4.8,0.7-9.6,1.8-14.2,3.2c-19,5-36.9,13.2-53,24.3
		c-32.3,22-56.5,54-68.8,91.2c-5.6,18.2-8.5,37.1-8.6,56.1c0,7.3-1.2,14.5-3.6,21.4c-0.6,1.8-1.2,3.5-2,5.2l-2.5,5.8L21.3,222
		l-10.2,23.3l-5,11.5l-2.5,5.7l-1.2,2.8l-0.3,0.8l-0.5,1.3v0c-0.3,0.9-0.6,1.8-0.8,2.7c-1.8,7.4-0.4,15.1,4,21.3
		C6.9,294.4,9.7,296.9,12.8,298.7L12.8,298.7z"/>
	<path class="st0" d="M309.2,156.9l2.1-1.6h0c1-0.8,1.9-1.6,2.8-2.6c3.9-4.2,6.2-9.7,6.3-15.4c0.1-3-0.5-6-1.5-8.8
		c-0.3-0.7-0.6-1.4-0.9-2.1l-0.9-1.7l-1.4-2.7l-5.7-10.7l-0.4-0.7l-0.7-1.1v0c-0.4-0.7-0.9-1.4-1.5-2.1c-1.1-1.4-2.2-2.6-3.6-3.7
		c-5.5-4.6-12.8-6.6-19.8-5.4c-0.9,0.2-1.8,0.4-2.6,0.6l-2.1,0.7l-3.2,1.1l-7.1,2.7c-6.4-5.2-13.5-9.5-21-12.8l-0.8-4.7l-0.9-5.5
		l-0.2-1.5c0-0.8-0.3-1.6-0.6-2.4v0c-2.3-8.3-8.5-15-16.6-17.9c-1.6-0.6-3.3-1-5-1.3c-0.8-0.1-1.7-0.2-2.6-0.2h-13.8
		c-2.5-0.2-5.1-0.2-7.6,0c-5.5,0.7-10.6,3.1-14.7,6.8c-4.1,3.7-6.9,8.6-8.2,14l-0.4,2l-0.3,1.5l-0.6,3l-1,5.2v0
		c-7.1,3-13.9,6.8-20.1,11.4l-4.4-1.6l-5.5-2l-2.3-0.8c-0.9-0.3-1.8-0.4-2.7-0.6h0c-1.8-0.3-3.6-0.5-5.4-0.5
		c-7.3,0.1-14.4,3.1-19.5,8.3c-1.3,1.3-2.4,2.7-3.4,4.3l-0.7,1.1l-0.4,0.7l-0.8,1.3l-3,5.1l-3.1,4.9l-1.6,2.8h0
		c-0.9,1.6-1.6,3.3-2.2,5.1c-1.7,5.3-1.7,11-0.2,16.3s4.7,10.1,8.9,13.6l4.7,3.8l3.5,2.9c-0.9,7.6-0.9,15.2,0,22.7l-3.7,3.2
		l-4.7,4.2c-4.3,3.7-7.3,8.6-8.7,14.1c-1.4,5.5-1.1,11.3,0.8,16.6c0.3,0.9,0.7,1.7,1.1,2.5c0.4,0.8,0.9,1.8,1.1,2.1l1.5,2.6l3,5.1
		l3,5.1l0.8,1.3c0.5,0.8,0.9,1.5,1.5,2.3l0,0c5.4,7.4,14,11.6,23.1,11.4c1.8,0,3.5-0.3,5.3-0.7c0.9-0.2,1.7-0.4,2.6-0.7l1.2-0.4
		l0.7-0.2l5.4-1.9l4.1-1.5c6.3,4.7,13.1,8.5,20.3,11.5l1.1,6.1l0.6,3.2l0.3,1.8l0,0c0.2,0.9,0.4,1.9,0.7,2.8c1.7,5.3,5,10,9.4,13.4
		c4.5,3.4,9.9,5.3,15.5,5.4h18.6c4.9-0.2,9.7-1.9,13.8-4.7c4-2.8,7.2-6.8,9.1-11.4c0.6-1.5,1.1-3.1,1.4-4.7v-3.2l0.8-5.3l0.7-4.7
		c7.9-3.3,15.3-7.8,21.9-13.3l8.9,3h0c3.2,1.3,6.5,2,9.9,2.1c7.3,0.1,14.3-3,19-8.7c0.5-0.7,1.1-1.4,1.5-2.1
		c0.4-0.7,0.9-1.6,1.1-1.9l1.5-2.8l5.7-10.6c0.6-1.2,1.2-2.4,1.7-3.6c0.5-1.4,0.9-2.8,1.2-4.2c0.5-2.8,0.5-5.6,0-8.4
		c-0.9-5.2-3.7-9.9-7.7-13.3c-4.4-3.5-8.1-6.3-11.8-9c0.4-2.9,0.5-5.9,0.5-8.9c-0.2-1.5-1.1-2.9-2.3-3.8c-1.3-0.9-2.8-1.2-4.3-1
		c-2.7-0.2-5.2,1.5-6,4.1c-0.4,3.8-1.1,7.5-1.9,11.2c-0.5,2.3,0.2,4.7,1.9,6.3l0.3,0.3l13.3,12.3h0c1.1,1.2,1.8,2.7,1.9,4.4
		c0.1,0.8,0,1.6-0.2,2.4c-0.1,0.4-0.3,0.8-0.5,1.1c0,0.5-0.3,0.5-0.9,1.5l-6.3,10.2l-1.7,2.7c-0.2,0.3-0.3,0.5-0.5,0.8l-0.4,0.5
		c-0.6,0.6-1.3,1.1-2.1,1.4c-0.8,0.3-1.7,0.4-2.6,0.3c-1.4-0.2-2.8-0.7-4-1.3l-14.2-5.6v0c-3.2-1.3-6.8-0.7-9.5,1.5l-0.5,0.4
		c-7.5,6.2-16.2,10.9-25.5,13.8c-3.6,1.2-6.3,4.2-7.1,8v0.3l-2.1,10.7l-1,5.3l-0.2,1.3v0.6h0c-0.1,0.2-0.2,0.5-0.3,0.7
		c-0.5,0.8-1.2,1.3-2.1,1.6c-0.4,0.1-0.9,0.1-1.3,0h-16.8c-0.9-0.1-1.7-0.5-2.3-1.2c-0.3-0.3-0.5-0.7-0.6-1.1l-0.8-4.7l-2.1-13.1v0
		c-0.7-4.4-3.7-8-7.8-9.5h-0.3c-9-3.1-17.3-7.9-24.3-14.2c-3.4-3-8.1-4-12.4-2.5l-10.7,3.8l-5.4,1.9l-0.7,0.2h-0.9
		c-0.6,0-1.1-0.3-1.6-0.7l-0.3-0.3l-0.8-1.4l-2.9-5.1l-2.9-5.1l-1.5-2.6h0c-0.1-0.2-0.2-0.3-0.3-0.5c-0.2-0.5-0.2-1.1,0-1.6
		c0.1-0.2,0.3-0.4,0.5-0.6l4.4-3.6l9.5-7.8c3.6-3,5.3-7.8,4.4-12.5c-1.9-9.3-1.9-18.8,0-28.1c0.9-4.8-0.9-9.7-4.8-12.7L130,143
		l-4.7-3.8v0c-0.7-0.5-0.9-1.4-0.7-2.2c0-0.1,0-0.3,0-0.4l1.3-2.3l5.9-10.2l0.7-1.3l0.3-0.6l0.2-0.3h0c0.4-0.4,0.9-0.7,1.5-0.7h1.1
		l5.5,2l10.9,3.9c4.3,1.5,9.1,0.6,12.5-2.5c7.1-6.3,15.3-11.1,24.3-14.2h0.2h0c4.2-1.5,7.3-5.1,8-9.5l2-12.2l0.9-5.5h0
		c0-0.4,0.2-0.8,0.4-1.1c0.4-0.7,1.1-1.2,1.9-1.3h4.4h13.7c0.9,0.2,1.6,0.8,2.1,1.6c0.1,0.2,0.2,0.4,0.3,0.6v0.3l0.2,1.3l1,5.5
		l2.1,10.8v0.5c0.8,3.8,3.6,6.9,7.3,8.1c9.3,2.9,17.9,7.6,25.4,13.9l0.4,0.3h0c2.8,2.3,6.6,2.9,10,1.6l12.7-5l3.1-1.2l1-0.4h0.5
		c0.8-0.2,1.5-0.2,2.3,0c0.8,0.1,1.5,0.4,2.1,0.9c0.3,0.2,0.6,0.5,0.9,0.8c0.1,0.1,0.3,0.3,0.4,0.5l0.4,0.6l7.6,9.9l1.6,2.5l0.6,0.9
		c0.1,0.2,0.2,0.3,0.3,0.5c0.4,0.7,0.6,1.5,0.7,2.3c0.2,1.7-0.3,3.4-1.3,4.7c-0.3,0.4-0.6,0.8-1,1.1l-1.9,1.8l-3.7,3.5l-7.1,6.6
		l-0.3,0.3c-1.8,1.6-2.5,4.1-1.9,6.4c0.9,3.6,1.5,7.3,1.9,11.1c0.3,2.4,3.4,4.4,7.1,4.2c2.9,0.2,5.5-1.9,5.9-4.7
		c0-2.8-0.2-5.7-0.5-8.5l4.7-3.6L309.2,156.9z"/>
</g>
</svg>

<svg width="387" height="453" viewBox="0 0 387 453" fill="none" xmlns="http://www.w3.org/2000/svg">
<g clip-path="url(#clip0_493_929)">
<path d="M196.3 154.7C200.4 151 205.4 148.3 210.7 146.9C211.3 146.9 211.8 143.6 211.8 140C211.8 136.4 211.1 134.3 210.2 134.2C201.6 133.2 193 135 185.6 139.5C175.3 145.5 167.9 155.3 164.9 166.8C163.2 173.4 162.9 180.2 164 186.9C165.3 194 168.2 200.8 172.4 206.7C181.5 219.2 196.1 226.6 211.5 226.6C226.9 226.6 241.5 219.2 250.6 206.7C255 200.9 258.1 194.2 259.5 187C260.7 180.3 260.4 173.4 258.7 166.8C255.7 155.3 248.3 145.4 238.1 139.4C230.7 135 222 133.1 213.5 134C212.5 134 211.8 137.2 211.9 140.9C212 144.5 212.5 146.8 213 147C218.3 148.4 223.2 151 227.2 154.7C232.1 159.1 235.2 165.1 236.2 171.6C237.2 178.7 235.2 185.9 230.7 191.4C226.1 197.1 219.1 200.4 211.8 200.4C204.5 200.4 197.5 197.1 192.9 191.4C188.4 185.9 186.3 178.7 187.4 171.6C188.3 165.1 191.4 159.1 196.3 154.7Z" fill="#0E53BE"/>
<path d="M12.8 298.7C14.4 299.6 16 300.3 17.8 300.9L20.7 301.8L35.8 306.5L36.3 346.5V361L36.5 364.8C36.8 367.3 37.4 369.8 38.1 372.3C41.1 381.9 47.7 389.9 56.4 394.8C60.6 397.2 65.1 398.8 69.9 399.5C72.2 399.8 74.4 400 76.7 400H82L102.3 399.6L133.8 398.8C139.6 417.2 144.8 433.5 149.4 447.7C149.9 449.5 151 451 152.7 451.9C154.3 452.8 156.2 453 158 452.4C161.4 451.2 163.2 447.5 162.2 444.1C158.3 428 153.6 409.4 148 388.1C147.1 384.6 144 382.2 140.4 382.1H140L102.4 381.2L82.1 380.8H76.9C75.7 380.8 74.4 380.6 73.2 380.4C69.6 379.7 66.3 378.1 63.7 375.6C61 373.2 59.1 370 58.1 366.5C57.8 365.3 57.6 364.1 57.4 362.9V346.6L58 298.3C58 293.7 55.2 289.5 50.8 287.8H50.6L28 279.9L25.2 278.9L24.7 278.5C24.4 278.3 24.1 278.1 23.9 277.7C23.5 277.1 23.4 276.3 23.6 275.6L43.5 231.7L48.8 220.1L51.5 214.1C52.5 211.9 53.4 209.6 54.2 207.3C57.7 197.8 59.5 187.7 59.5 177.6C59.8 161.3 62.4 145.1 67.3 129.6C78.1 98 98.9 70.7 126.5 52C140.2 42.6 155.4 35.6 171.5 31.4C175.5 30.2 179.6 29.2 183.8 28.7C187.8 27.8 191.9 27.2 196.1 26.9L208.5 26L220.9 26.4C253.4 28.3 284.5 40.6 309.4 61.5C333 81.4 350.2 107.9 358.8 137.6C360.7 144.6 362.2 151.8 363.1 159C364.2 166.1 364.7 173.2 364.6 180.4C364.6 194.1 362.8 207.7 359.2 220.9C352.6 244.7 340.4 266.6 323.8 284.9L323.5 285.2C321.4 287.4 320.5 290.5 321.3 293.5C335.5 340.2 344.1 367.8 351.6 390.4C352.1 392.1 353.2 393.6 354.8 394.4C356.4 395.2 358.2 395.4 360 394.9C363.2 393.6 364.9 390.2 363.9 386.9C358.5 364.5 351.6 337.6 339.8 293.5C368.7 262.9 385.4 222.8 386.6 180.7C386.9 172.5 386.6 164.4 385.6 156.3C384.7 147.9 383.2 139.6 381.2 131.5C372 96.9 352.6 66 325.6 42.6C296.5 17.6 260.2 2.9 222.2 0.5L208 0L193.3 1C188.5 1.4 183.8 2.1 179.1 3.1C174.3 3.8 169.5 4.9 164.9 6.3C145.9 11.3 128 19.5 111.9 30.6C79.6 52.6 55.4 84.6 43.1 121.8C37.5 140 34.6 158.9 34.5 177.9C34.5 185.2 33.3 192.4 30.9 199.3C30.3 201.1 29.7 202.8 28.9 204.5L26.4 210.3L21.3 222L11.1 245.3L6.09999 256.8L3.59999 262.5L2.39999 265.3L2.09999 266.1L1.59999 267.4C1.29999 268.3 0.999986 269.2 0.799986 270.1C-1.00001 277.5 0.399987 285.2 4.79999 291.4C6.89999 294.4 9.69999 296.9 12.8 298.7Z" fill="#0E53BE"/>
<path d="M309.2 156.9L311.3 155.3C312.3 154.5 313.2 153.7 314.1 152.7C318 148.5 320.3 143 320.4 137.3C320.5 134.3 319.9 131.3 318.9 128.5C318.6 127.8 318.3 127.1 318 126.4L317.1 124.7L315.7 122L310 111.3L309.6 110.6L308.9 109.5C308.5 108.8 308 108.1 307.4 107.4C306.3 106 305.2 104.8 303.8 103.7C298.3 99.1 291 97.1 284 98.3C283.1 98.5 282.2 98.7 281.4 98.9L279.3 99.6L276.1 100.7L269 103.4C262.6 98.2 255.5 93.9 248 90.6L247.2 85.9L246.3 80.4L246.1 78.9C246.1 78.1 245.8 77.3 245.5 76.5C243.2 68.2 237 61.5 228.9 58.6C227.3 58 225.6 57.6 223.9 57.3C223.1 57.2 222.2 57.1 221.3 57.1H207.5C205 56.9 202.4 56.9 199.9 57.1C194.4 57.8 189.3 60.2 185.2 63.9C181.1 67.6 178.3 72.5 177 77.9L176.6 79.9L176.3 81.4L175.7 84.4L174.7 89.6C167.6 92.6 160.8 96.4 154.6 101L150.2 99.4L144.7 97.4L142.4 96.6C141.5 96.3 140.6 96.2 139.7 96C137.9 95.7 136.1 95.5 134.3 95.5C127 95.6 119.9 98.6 114.8 103.8C113.5 105.1 112.4 106.5 111.4 108.1L110.7 109.2L110.3 109.9L109.5 111.2L106.5 116.3L103.4 121.2L101.8 124C100.9 125.6 100.2 127.3 99.6 129.1C97.9 134.4 97.9 140.1 99.4 145.4C100.9 150.7 104.1 155.5 108.3 159L113 162.8L116.5 165.7C115.6 173.3 115.6 180.9 116.5 188.4L112.8 191.6L108.1 195.8C103.8 199.5 100.8 204.4 99.4 209.9C98 215.4 98.3 221.2 100.2 226.5C100.5 227.4 100.9 228.2 101.3 229C101.7 229.8 102.2 230.8 102.4 231.1L103.9 233.7L106.9 238.8L109.9 243.9L110.7 245.2C111.2 246 111.6 246.7 112.2 247.5C117.6 254.9 126.2 259.1 135.3 258.9C137.1 258.9 138.8 258.6 140.6 258.2C141.5 258 142.3 257.8 143.2 257.5L144.4 257.1L145.1 256.9L150.5 255L154.6 253.5C160.9 258.2 167.7 262 174.9 265L176 271.1L176.6 274.3L176.9 276.1C177.1 277 177.3 278 177.6 278.9C179.3 284.2 182.6 288.9 187 292.3C191.5 295.7 196.9 297.6 202.5 297.7H221.1C226 297.5 230.8 295.8 234.9 293C238.9 290.2 242.1 286.2 244 281.6C244.6 280.1 245.1 278.5 245.4 276.9V273.7L246.2 268.4L246.9 263.7C254.8 260.4 262.2 255.9 268.8 250.4L277.7 253.4C280.9 254.7 284.2 255.4 287.6 255.5C294.9 255.6 301.9 252.5 306.6 246.8C307.1 246.1 307.7 245.4 308.1 244.7C308.5 244 309 243.1 309.2 242.8L310.7 240L316.4 229.4C317 228.2 317.6 227 318.1 225.8C318.6 224.4 319 223 319.3 221.6C319.8 218.8 319.8 216 319.3 213.2C318.4 208 315.6 203.3 311.6 199.9C307.2 196.4 303.5 193.6 299.8 190.9C300.2 188 300.3 185 300.3 182C300.1 180.5 299.2 179.1 298 178.2C296.7 177.3 295.2 177 293.7 177.2C291 177 288.5 178.7 287.7 181.3C287.3 185.1 286.6 188.8 285.8 192.5C285.3 194.8 286 197.2 287.7 198.8L288 199.1L301.3 211.4C302.4 212.6 303.1 214.1 303.2 215.8C303.3 216.6 303.2 217.4 303 218.2C302.9 218.6 302.7 219 302.5 219.3C302.5 219.8 302.2 219.8 301.6 220.8L295.3 231L293.6 233.7C293.4 234 293.3 234.2 293.1 234.5L292.7 235C292.1 235.6 291.4 236.1 290.6 236.4C289.8 236.7 288.9 236.8 288 236.7C286.6 236.5 285.2 236 284 235.4L269.8 229.8C266.6 228.5 263 229.1 260.3 231.3L259.8 231.7C252.3 237.9 243.6 242.6 234.3 245.5C230.7 246.7 228 249.7 227.2 253.5V253.8L225.1 264.5L224.1 269.8L223.9 271.1V271.7C223.8 271.9 223.7 272.2 223.6 272.4C223.1 273.2 222.4 273.7 221.5 274C221.1 274.1 220.6 274.1 220.2 274H203.4C202.5 273.9 201.7 273.5 201.1 272.8C200.8 272.5 200.6 272.1 200.5 271.7L199.7 267L197.6 253.9C196.9 249.5 193.9 245.9 189.8 244.4H189.5C180.5 241.3 172.2 236.5 165.2 230.2C161.8 227.2 157.1 226.2 152.8 227.7L142.1 231.5L136.7 233.4L136 233.6H135.1C134.5 233.6 134 233.3 133.5 232.9L133.2 232.6L132.4 231.2L129.5 226.1L126.6 221L125.1 218.4C125 218.2 124.9 218.1 124.8 217.9C124.6 217.4 124.6 216.8 124.8 216.3C124.9 216.1 125.1 215.9 125.3 215.7L129.7 212.1L139.2 204.3C142.8 201.3 144.5 196.5 143.6 191.8C141.7 182.5 141.7 173 143.6 163.7C144.5 158.9 142.7 154 138.8 151L130 143L125.3 139.2C124.6 138.7 124.4 137.8 124.6 137C124.6 136.9 124.6 136.7 124.6 136.6L125.9 134.3L131.8 124.1L132.5 122.8L132.8 122.2L133 121.9C133.4 121.5 133.9 121.2 134.5 121.2H135.6L141.1 123.2L152 127.1C156.3 128.6 161.1 127.7 164.5 124.6C171.6 118.3 179.8 113.5 188.8 110.4H189C193.2 108.9 196.3 105.3 197 100.9L199 88.7L199.9 83.2C199.9 82.8 200.1 82.4 200.3 82.1C200.7 81.4 201.4 80.9 202.2 80.8H206.6H220.3C221.2 81 221.9 81.6 222.4 82.4C222.5 82.6 222.6 82.8 222.7 83V83.3L222.9 84.6L223.9 90.1L226 100.9V101.4C226.8 105.2 229.6 108.3 233.3 109.5C242.6 112.4 251.2 117.1 258.7 123.4L259.1 123.7C261.9 126 265.7 126.6 269.1 125.3L281.8 120.3L284.9 119.1L285.9 118.7H286.4C287.2 118.5 287.9 118.5 288.7 118.7C289.5 118.8 290.2 119.1 290.8 119.6C291.1 119.8 291.4 120.1 291.7 120.4C291.8 120.5 292 120.7 292.1 120.9L292.5 121.5L300.1 131.4L301.7 133.9L302.3 134.8C302.4 135 302.5 135.1 302.6 135.3C303 136 303.2 136.8 303.3 137.6C303.5 139.3 303 141 302 142.3C301.7 142.7 301.4 143.1 301 143.4L299.1 145.2L295.4 148.7L288.3 155.3L288 155.6C286.2 157.2 285.5 159.7 286.1 162C287 165.6 287.6 169.3 288 173.1C288.3 175.5 291.4 177.5 295.1 177.3C298 177.5 300.6 175.4 301 172.6C301 169.8 300.8 166.9 300.5 164.1L305.2 160.5L309.2 156.9Z" fill="#0E53BE"/>
</g>
<defs>
<clipPath id="clip0_493_929">
<rect width="386.6" height="452.9" fill="white"/>
</clipPath>
</defs>
</svg>
